resources/icons/wallets/abra.svg

<svg viewBox="0 0 214 214" fill="none" xmlns="http://www.w3.org/2000/svg">
<rect width="214" height="214" rx="8" fill="#E1EDFF"/>
<path d="M103.651 117.334C102.881 118.766 101.739 119.959 100.349 120.786C99.3049 121.42 98.1447 121.835 96.9381 122.005C95.7314 122.175 94.5032 122.097 93.3272 121.775C92.1512 121.454 91.0518 120.896 90.095 120.134C89.1383 119.372 88.344 118.424 87.7599 117.344C86.9491 115.812 86.5362 114.098 86.5599 112.361C86.5345 110.635 86.947 108.932 87.7581 107.412C88.3624 106.352 89.1676 105.423 90.1277 104.678C91.0878 103.933 92.1839 103.386 93.3535 103.068C94.5231 102.751 95.7432 102.669 96.9441 102.828C98.1449 102.987 99.303 103.383 100.352 103.994C101.739 104.816 102.88 106 103.658 107.421C104.483 108.932 104.904 110.635 104.879 112.361C104.902 114.097 104.48 115.81 103.654 117.333L103.651 117.334ZM105.024 96.6105C102.715 95.1843 100.09 94.3634 97.3871 94.2227C94.6843 94.0819 91.9895 94.6258 89.5479 95.8047C88.3492 96.3969 87.2281 97.1373 86.2105 98.009V84.414C86.231 83.83 86.1354 83.2478 85.9293 82.7017C85.7232 82.1557 85.4107 81.6568 85.0105 81.2347C84.1831 80.4443 83.0881 80.0027 81.949 80C80.81 79.9973 79.7129 80.4338 78.882 81.2203C78.4692 81.6383 78.146 82.1376 77.9324 82.687C77.7188 83.2364 77.6194 83.8242 77.6403 84.414V112.565C77.6029 115.839 78.4134 119.067 79.9915 121.928C81.5004 124.672 83.7041 126.962 86.3772 128.564C89.0957 130.186 92.2028 131.026 95.3607 130.99C98.5343 131.019 101.657 130.182 104.398 128.568C107.096 126.982 109.316 124.685 110.82 121.923C112.377 119.056 113.176 115.833 113.139 112.564C113.177 109.325 112.438 106.126 110.986 103.238C109.631 100.526 107.572 98.236 105.029 96.6123" fill="#1C3459"/>
<path d="M54.2703 94.1044C49.4247 94.1044 44.7776 96.0476 41.3512 99.5066C37.9249 102.966 36 107.657 36 112.549C36 117.44 37.9249 122.132 41.3512 125.591C44.7776 129.05 49.4247 130.993 54.2703 130.993C55.5405 130.993 56.7587 130.483 57.6568 129.577C58.555 128.67 59.0596 127.44 59.0596 126.158C59.0596 124.876 58.555 123.646 57.6568 122.739C56.7587 121.832 55.5405 121.323 54.2703 121.323C52.5431 121.357 50.8451 120.871 49.3927 119.927C47.9402 118.983 46.7992 117.623 46.115 116.022C45.4309 114.421 45.2346 112.65 45.5512 110.936C45.8679 109.221 46.683 107.641 47.8929 106.396C49.1027 105.151 50.6523 104.298 52.3442 103.946C54.036 103.594 55.7935 103.758 57.3925 104.418C58.9914 105.078 60.3595 106.204 61.3222 107.652C62.2849 109.1 62.7986 110.805 62.7979 112.549V126.158C62.7858 126.788 62.8982 127.414 63.1286 128C63.359 128.585 63.7028 129.118 64.1399 129.568C64.5769 130.018 65.0984 130.376 65.6739 130.62C66.2494 130.863 66.8673 130.989 67.4914 130.989C68.1156 130.989 68.7334 130.863 69.3089 130.62C69.8844 130.376 70.4059 130.018 70.843 129.568C71.28 129.118 71.6238 128.585 71.8542 128C72.0846 127.414 72.1971 126.788 72.1849 126.158V112.549C72.2261 107.706 70.3631 103.045 67.0045 99.5872C63.646 96.1296 59.0661 94.1578 54.2694 94.1044" fill="#1C3459"/>
<path d="M160.884 94.1044C156.038 94.1044 151.391 96.0476 147.965 99.5066C144.538 102.966 142.613 107.657 142.613 112.549C142.613 117.44 144.538 122.132 147.965 125.591C151.391 129.05 156.038 130.993 160.884 130.993C162.154 130.993 163.372 130.483 164.27 129.577C165.168 128.67 165.673 127.44 165.673 126.158C165.673 124.876 165.168 123.646 164.27 122.739C163.372 121.832 162.154 121.323 160.884 121.323C159.156 121.357 157.458 120.871 156.006 119.927C154.553 118.983 153.412 117.624 152.728 116.023C152.043 114.421 151.847 112.651 152.164 110.936C152.48 109.222 153.295 107.641 154.505 106.396C155.715 105.152 157.264 104.299 158.956 103.946C160.648 103.594 162.406 103.758 164.005 104.418C165.604 105.078 166.972 106.204 167.935 107.652C168.897 109.1 169.411 110.805 169.41 112.549V126.158C169.398 126.788 169.511 127.414 169.741 128C169.972 128.586 170.315 129.119 170.753 129.569C171.19 130.019 171.711 130.376 172.287 130.62C172.862 130.864 173.48 130.99 174.105 130.99C174.729 130.99 175.347 130.864 175.923 130.62C176.498 130.376 177.02 130.019 177.457 129.569C177.894 129.119 178.238 128.586 178.468 128C178.699 127.414 178.811 126.788 178.799 126.158V112.549C178.84 107.706 176.977 103.045 173.619 99.5872C170.26 96.1296 165.68 94.1578 160.884 94.1044Z" fill="#1C3459"/>
<path d="M141.077 95.2209C139.336 94.3766 137.414 93.9837 135.484 94.0776C133.349 94.0678 131.238 94.5311 129.3 95.4349C128.259 95.9191 127.279 96.5268 126.38 97.2453C125.882 95.4546 124.465 94.4518 122.326 94.4518C121.756 94.4237 121.187 94.514 120.653 94.7171C120.119 94.9203 119.632 95.2319 119.222 95.6328C118.83 96.062 118.526 96.5659 118.329 97.1151C118.132 97.6643 118.046 98.2477 118.075 98.831V126.613C118.04 127.205 118.125 127.799 118.325 128.358C118.525 128.916 118.835 129.427 119.238 129.86C119.653 130.247 120.14 130.547 120.671 130.741C121.202 130.936 121.766 131.021 122.331 130.993C122.91 131.027 123.491 130.938 124.034 130.732C124.578 130.525 125.072 130.206 125.485 129.794C126.249 128.919 126.643 127.777 126.585 126.613V108.464C126.552 107.591 126.732 106.722 127.109 105.935C127.485 105.148 128.048 104.467 128.747 103.951C130.58 102.67 132.781 102.039 135.007 102.155C136.243 102.188 137.474 102.324 138.687 102.564C139.065 102.652 139.452 102.702 139.84 102.714C140.677 102.742 141.497 102.47 142.154 101.945C142.811 101.421 143.263 100.678 143.429 99.849C143.521 99.5185 143.562 99.1758 143.551 98.8328C143.551 97.804 143.123 96.3428 141.086 95.2227" fill="#1C3459"/>
</svg>

<svg viewBox="0 0 214 214" fill="none" xmlns="http://www.w3.org/2000/svg"><rect width="214" height="214" rx="8" fill="#E1EDFF"/><path d="M103.651 117.334a8.944 8.944 0 0 1-3.302 3.452 8.945 8.945 0 0 1-7.022.989 8.987 8.987 0 0 1-3.232-1.641 9.1 9.1 0 0 1-2.335-2.79 10.352 10.352 0 0 1-1.2-4.983 10.194 10.194 0 0 1 1.198-4.949 9.271 9.271 0 0 1 2.37-2.734 9.139 9.139 0 0 1 10.224-.684 9.008 9.008 0 0 1 3.306 3.427 10.01 10.01 0 0 1 1.221 4.94 10.15 10.15 0 0 1-1.225 4.972l-.003.001Zm1.373-20.724a16.1 16.1 0 0 0-15.476-.806 16.074 16.074 0 0 0-3.338 2.205V84.414a4.412 4.412 0 0 0-1.2-3.18A4.447 4.447 0 0 0 81.95 80a4.446 4.446 0 0 0-3.067 1.22 4.342 4.342 0 0 0-1.242 3.194v28.151a18.943 18.943 0 0 0 2.352 9.363 17.642 17.642 0 0 0 6.385 6.636 17.15 17.15 0 0 0 8.984 2.426 17.493 17.493 0 0 0 9.037-2.422 17.3 17.3 0 0 0 6.422-6.645 19.16 19.16 0 0 0 2.319-9.359 20.236 20.236 0 0 0-2.153-9.326 16.727 16.727 0 0 0-5.957-6.626M54.27 94.104a18.183 18.183 0 0 0-12.919 5.403A18.535 18.535 0 0 0 36 112.549c0 4.891 1.925 9.583 5.351 13.042a18.183 18.183 0 0 0 12.92 5.402 4.77 4.77 0 0 0 3.386-1.416 4.86 4.86 0 0 0 1.403-3.419 4.86 4.86 0 0 0-1.403-3.419 4.765 4.765 0 0 0-3.387-1.416 8.636 8.636 0 0 1-4.877-1.396 8.76 8.76 0 0 1-3.278-3.905 8.856 8.856 0 0 1-.564-5.086 8.808 8.808 0 0 1 2.342-4.54 8.67 8.67 0 0 1 4.451-2.45 8.623 8.623 0 0 1 5.048.472 8.715 8.715 0 0 1 3.93 3.234 8.84 8.84 0 0 1 1.476 4.897v13.609a4.747 4.747 0 0 0 1.342 3.41 4.673 4.673 0 0 0 5.169 1.052 4.694 4.694 0 0 0 1.534-1.052 4.748 4.748 0 0 0 1.342-3.41v-13.609a18.38 18.38 0 0 0-5.18-12.962 18.033 18.033 0 0 0-12.736-5.483M160.884 94.104a18.182 18.182 0 0 0-12.919 5.403 18.533 18.533 0 0 0-5.352 13.042c0 4.891 1.925 9.583 5.352 13.042a18.182 18.182 0 0 0 12.919 5.402c1.27 0 2.488-.51 3.386-1.416a4.86 4.86 0 0 0 1.403-3.419 4.86 4.86 0 0 0-1.403-3.419 4.764 4.764 0 0 0-3.386-1.416 8.635 8.635 0 0 1-4.878-1.396 8.754 8.754 0 0 1-3.278-3.904 8.849 8.849 0 0 1 1.777-9.627 8.684 8.684 0 0 1 4.451-2.45 8.625 8.625 0 0 1 5.049.472 8.717 8.717 0 0 1 3.93 3.234 8.843 8.843 0 0 1 1.475 4.897v13.609c-.012.63.101 1.256.331 1.842a4.738 4.738 0 0 0 1.012 1.569 4.685 4.685 0 0 0 3.352 1.421 4.66 4.66 0 0 0 3.352-1.421 4.774 4.774 0 0 0 1.342-3.411v-13.609a18.383 18.383 0 0 0-5.18-12.962 18.035 18.035 0 0 0-12.735-5.483ZM141.077 95.22a11.53 11.53 0 0 0-5.593-1.142 14.472 14.472 0 0 0-9.104 3.167c-.498-1.79-1.915-2.793-4.054-2.793a4.131 4.131 0 0 0-1.673.265 4.167 4.167 0 0 0-1.431.916 4.403 4.403 0 0 0-1.147 3.198v27.782a4.41 4.41 0 0 0 .25 1.745c.2.558.51 1.069.913 1.502a4.231 4.231 0 0 0 3.093 1.133 4.123 4.123 0 0 0 3.154-1.199 4.497 4.497 0 0 0 1.1-3.181v-18.149a5.386 5.386 0 0 1 .524-2.529 5.312 5.312 0 0 1 1.638-1.984 10.014 10.014 0 0 1 6.26-1.796 21.98 21.98 0 0 1 3.68.409c.378.088.765.138 1.153.15a3.517 3.517 0 0 0 2.314-.769 3.58 3.58 0 0 0 1.275-2.096c.092-.33.133-.673.122-1.016 0-1.029-.428-2.49-2.465-3.61" fill="#1C3459"/></svg>
